usr/share/icons/biglinux-icons-material-dark/22/actions/distribute-unclump.svg

<svg xmlns="http://www.w3.org/2000/svg" viewBox="0 0 22 22">
<defs id="defs3051">
<style id="current-color-scheme" type="text/css">
.ColorScheme-Text{color:#dedede}
</style>
</defs>
<path d="M3 4v15h4V4zm11 0v4h5V4zM8 5v1h5V5zm8 4v5h1V9zm-2 6v4h5v-4zm-6 2v1h5v-1z" class="ColorScheme-Text" style="fill:currentColor;fill-opacity:1;stroke:none"/>
</svg>

<svg xmlns="http://www.w3.org/2000/svg" viewBox="0 0 22 22">
  <defs id="defs3051">
    <style type="text/css" id="current-color-scheme">
      .ColorScheme-Text {
        color:#dedede;
      }
      </style>
  </defs>
 <path 
    style="fill:currentColor;fill-opacity:1;stroke:none" 
    d="M 3 4 L 3 19 L 7 19 L 7 18 L 7 5 L 7 4 L 3 4 z M 14 4 L 14 8 L 19 8 L 19 4 L 14 4 z M 8 5 L 8 6 L 13 6 L 13 5 L 8 5 z M 16 9 L 16 14 L 17 14 L 17 9 L 16 9 z M 14 15 L 14 19 L 19 19 L 19 15 L 14 15 z M 8 17 L 8 18 L 13 18 L 13 17 L 8 17 z "
    class="ColorScheme-Text"
    />  
</svg>
